overrides/.icons/class/phb24-monk.svg

<?xml version="1.0" encoding="UTF-8" standalone="no"?>
<svg
   version="1.0"
   viewBox="0 0 24 24"
   preserveAspectRatio="xMidYMid"
   id="svg1"
   sodipodi:docname="phb24-monk.svg"
   xml:space="preserve"
   inkscape:version="1.3.2 (091e20e, 2023-11-25, custom)"
   xmlns:inkscape="http://www.inkscape.org/namespaces/inkscape"
   xmlns:sodipodi="http://sodipodi.sourceforge.net/DTD/sodipodi-0.dtd"
   xmlns="http://www.w3.org/2000/svg"
   xmlns:svg="http://www.w3.org/2000/svg"><defs
     id="defs1" /><sodipodi:namedview
     id="namedview1"
     pagecolor="#ffffff"
     bordercolor="#111111"
     borderopacity="1"
     inkscape:showpageshadow="0"
     inkscape:pageopacity="0"
     inkscape:pagecheckerboard="1"
     inkscape:deskcolor="#d1d1d1"
     inkscape:document-units="px"
     inkscape:zoom="7.3397685"
     inkscape:cx="-0.81746447"
     inkscape:cy="16.6899"
     inkscape:window-width="1366"
     inkscape:window-height="697"
     inkscape:window-x="-8"
     inkscape:window-y="-8"
     inkscape:window-maximized="1"
     inkscape:current-layer="svg1" /><g
     transform="matrix(0.1,0,0,-0.1,0,300)"
     fill="#000000"
     stroke="none"
     id="g1" /><path
     style="stroke:none;stroke-width:1"
     d="M 7.0403258,9.4366215 C 6.5512161,9.2735854 6.3066336,8.8380982 5.9220602,8.5216767 5.3839889,8.0789598 4.8942021,7.5954792 4.3971523,7.098429 4.1469408,6.8482179 3.6021451,6.2267841 3.2280548,6.2512573 3.0901888,6.2602673 3.0162731,6.3469913 2.9230735,6.4376354 2.4140478,6.932716 3.0163665,7.67242 3.3805463,8.1150345 c 0.2424466,0.2946656 0.5708388,0.5186187 0.8132842,0.8132842 0.7277597,0.8845082 1.6603612,1.6050783 2.3890227,2.4906823 0.4127498,0.50165 0.8579341,0.959594 1.3215874,1.423247 l -0.050829,0.05083 C 7.6798356,12.812876 7.4525554,12.760633 7.3029486,12.630456 7.0898662,12.445046 6.9740702,12.137305 6.786175,11.927304 6.4014015,11.497263 5.6130218,11.132732 5.1087757,11.571492 c -0.1080886,0.09405 -0.1738266,0.239212 -0.2541508,0.355812 0.3137553,0.313755 0.5590249,0.673032 0.7624539,1.067436 0.1364802,0.264607 0.2158951,0.581455 0.4066423,0.813284 0.3125186,0.37983 0.7079547,0.470845 1.1013217,0.728568 0.863094,0.565474 1.4422324,1.247609 2.5584579,1.304641 0.260363,0.01339 0.8163583,0.09831 1.0081333,-0.110115 0.123329,-0.134058 0.133649,-0.365546 0.177906,-0.533718 0.09518,-0.361693 0.221557,-0.725055 0.34734,-1.075924 0.504336,-1.406835 1.000355,-2.816069 1.296171,-4.2951554 C 12.606741,9.3578586 12.863225,8.6064221 12.7079,8.1404497 12.574735,7.7409525 11.970949,7.4002666 11.665881,7.1492594 10.935636,6.5484258 10.495911,5.6430584 9.7173872,5.1329919 9.3452955,4.889208 8.5402412,4.6905151 8.4720461,5.378672 8.4425341,5.6764311 8.7567062,5.8312577 8.9210455,6.0309936 9.3279307,6.5255148 10.039142,7.0470901 10.242633,7.6575621 9.7535243,7.4945266 9.5089394,7.0590379 9.1243671,6.7426173 8.4589146,6.1950928 7.8574489,5.5773597 7.2436475,4.9635577 6.9279399,4.6478512 6.3869356,4.0129401 5.9135882,3.9723673 5.3948723,3.9279071 5.1808515,4.5580572 5.4645874,4.9127275 6.2112804,5.846093 7.1954428,6.5815878 7.9552709,7.5050712 8.1254668,7.7119249 8.2389353,7.9622607 8.4127437,8.1658648 7.8769074,8.0341018 7.5211819,7.5792846 7.1419867,7.2000898 6.5120937,6.5701971 5.8335946,5.9933578 5.2104367,5.3702 4.8827947,5.042558 4.3598141,4.3086895 3.8126043,4.4806703 3.0094505,4.7330896 3.5447221,5.5246817 3.8888545,5.8785026 4.6442924,6.6552201 5.4361617,7.4806834 6.1253858,8.3183556 6.4418073,8.7029281 6.8772948,8.9475121 7.040331,9.4366215 M 7.2944767,1.8629114 c 0.5253711,0.2279932 1.1713508,0.2185154 1.7197577,0.4151142 2.4309206,0.8714611 4.4010746,2.7858201 4.4815346,5.4811971 0.03535,1.1839724 -0.266968,2.4413813 -0.60149,3.5665903 -0.554899,1.86647 -1.259572,3.688436 -1.753645,5.565914 -0.412029,1.565705 -0.95903,3.84707 0.69468,4.930535 0.59359,0.388906 1.205791,0.488148 1.863776,0.677738 l 0.05082,-0.05082 c -0.279706,-0.238786 -0.622808,-0.36753 -0.864106,-0.660801 -0.796236,-0.967733 -0.71708,-2.547954 -0.440529,-3.693665 0.788836,-3.268044 2.732059,-6.203416 3.270081,-9.5391461 0.150576,-0.933578 0.234046,-1.986153 0,-2.9142693 C 15.319128,4.0700331 14.208532,2.80384 12.767202,2.0831758 12.043743,1.721446 11.206527,1.5302826 10.395124,1.5070996 9.3571316,1.4774425 8.2917131,1.5304988 7.2944767,1.8629114 m 9.2511083,4.5747243 c 0.442168,4.3585353 -2.818226,7.9575273 -3.337852,12.1145473 -0.18543,1.483429 -0.0016,3.003618 1.550321,3.600476 0.282519,0.108667 0.569862,0.141901 0.872587,0.14402 0.290663,0.0022 0.587524,0.02292 0.864115,-0.05082 -0.532165,-0.454287 -1.125066,-0.598703 -1.507965,-1.23687 -0.563445,-0.939074 -0.372317,-2.17095 -0.169434,-3.185362 0.456553,-2.282765 1.549528,-4.275833 2.278891,-6.463916 C 17.49612,10.16009 17.674029,8.8741425 17.265681,7.649097 17.15084,7.3045803 16.874065,6.5753915 16.545585,6.4376425 m -0.35581,9.4035975 1.533379,-0.49983 0.957303,-0.364284 -1.626569,-1.423247 -0.669265,1.567267 -0.194848,0.720094 m -0.762455,3.60895 2.651645,-0.906473 3.193836,-1.075906 c -0.474822,-0.500489 -0.872668,-1.096845 -1.457134,-1.491022 -0.140262,-0.09458 -0.274061,-0.316852 -0.440532,-0.355812 -0.149548,-0.03501 -0.313123,0.06484 -0.448998,0.110129 l -1.067437,0.35581 -1.372416,0.457473 c -0.18405,0.06134 -0.440634,0.09132 -0.59302,0.220265 -0.161732,0.136849 -0.171645,0.400221 -0.220264,0.593019 -0.164199,0.651131 -0.42283,1.4282 -0.24568,2.092513 z"
     id="path1" /></svg>

<?xml version="1.0" encoding="UTF-8"?>
<svg id="svg1" preserveAspectRatio="xMidYMid" version="1.0" viewBox="0 0 24 24" xml:space="preserve" xmlns="http://www.w3.org/2000/svg"><path id="path1" d="m7.0403 9.4366c-0.48911-0.16304-0.73369-0.59852-1.1183-0.91494-0.53807-0.44272-1.0279-0.9262-1.5249-1.4232-0.25021-0.25021-0.79501-0.87164-1.1691-0.84717-0.13787 0.00901-0.21178 0.095734-0.30498 0.18638-0.50903 0.49508 0.093293 1.2348 0.45747 1.6774 0.24245 0.29467 0.57084 0.51862 0.81328 0.81328 0.72776 0.88451 1.6604 1.6051 2.389 2.4907 0.41275 0.50165 0.85793 0.95959 1.3216 1.4232l-0.050829 0.05083c-0.17378-0.080202-0.40106-0.13244-0.55066-0.26262-0.21308-0.18541-0.32888-0.49315-0.51677-0.70315-0.38477-0.43004-1.1732-0.79457-1.6774-0.35581-0.10809 0.09405-0.17383 0.23921-0.25415 0.35581 0.31376 0.31376 0.55902 0.67303 0.76245 1.0674 0.13648 0.26461 0.2159 0.58146 0.40664 0.81328 0.31252 0.37983 0.70795 0.47084 1.1013 0.72857 0.86309 0.56547 1.4422 1.2476 2.5585 1.3046 0.26036 0.01339 0.81636 0.09831 1.0081-0.11012 0.12333-0.13406 0.13365-0.36555 0.17791-0.53372 0.09518-0.36169 0.22156-0.72506 0.34734-1.0759 0.50434-1.4068 1.0004-2.8161 1.2962-4.2952 0.09369-0.46846 0.35017-1.2199 0.19485-1.6859-0.13316-0.3995-0.73695-0.74018-1.042-0.99119-0.73024-0.60083-1.17-1.5062-1.9485-2.0163-0.37209-0.24378-1.1771-0.44248-1.2453 0.24568-0.029512 0.29776 0.28466 0.45259 0.449 0.65232 0.40689 0.49452 1.1181 1.0161 1.3216 1.6266-0.48911-0.16304-0.73369-0.59852-1.1183-0.91494-0.66545-0.54752-1.2669-1.1653-1.8807-1.7791-0.31571-0.31571-0.85671-0.95062-1.3301-0.99119-0.51872-0.04446-0.73274 0.58569-0.449 0.94036 0.74669 0.93337 1.7309 1.6689 2.4907 2.5923 0.1702 0.20685 0.28366 0.45719 0.45747 0.66079-0.53584-0.13176-0.89156-0.58658-1.2708-0.96578-0.62989-0.62989-1.3084-1.2067-1.9316-1.8299-0.32764-0.32764-0.85062-1.0615-1.3978-0.88953-0.80315 0.25242-0.26788 1.044 0.07625 1.3978 0.75544 0.77672 1.5473 1.6022 2.2365 2.4399 0.31642 0.38457 0.75191 0.62916 0.91495 1.1183m0.25415-7.5737c0.52537 0.22799 1.1714 0.21852 1.7198 0.41511 2.4309 0.87146 4.4011 2.7858 4.4815 5.4812 0.03535 1.184-0.26697 2.4414-0.60149 3.5666-0.5549 1.8665-1.2596 3.6884-1.7536 5.5659-0.41203 1.5657-0.95903 3.8471 0.69468 4.9305 0.59359 0.38891 1.2058 0.48815 1.8638 0.67774l0.05082-0.05082c-0.27971-0.23879-0.62281-0.36753-0.86411-0.6608-0.79624-0.96773-0.71708-2.548-0.44053-3.6937 0.78884-3.268 2.7321-6.2034 3.2701-9.5391 0.15058-0.93358 0.23405-1.9862 0-2.9143-0.39623-1.5713-1.5068-2.8375-2.9482-3.5581-0.72346-0.36173-1.5607-0.55289-2.3721-0.57608-1.038-0.029657-2.1034 0.023399-3.1006 0.35581m9.2511 4.5747c0.44217 4.3585-2.8182 7.9575-3.3379 12.115-0.18543 1.4834-0.0016 3.0036 1.5503 3.6005 0.28252 0.10867 0.56986 0.1419 0.87259 0.14402 0.29066 0.0022 0.58752 0.02292 0.86412-0.05082-0.53216-0.45429-1.1251-0.5987-1.508-1.2369-0.56344-0.93907-0.37232-2.171-0.16943-3.1854 0.45655-2.2828 1.5495-4.2758 2.2789-6.4639 0.39987-1.1996 0.57778-2.4856 0.16943-3.7106-0.11484-0.34452-0.39162-1.0737-0.7201-1.2115m-0.35581 9.4036 1.5334-0.49983 0.9573-0.36428-1.6266-1.4232-0.66926 1.5673-0.19485 0.72009m-0.76246 3.609 2.6516-0.90647 3.1938-1.0759c-0.47482-0.50049-0.87267-1.0968-1.4571-1.491-0.14026-0.09458-0.27406-0.31685-0.44053-0.35581-0.14955-0.03501-0.31312 0.06484-0.449 0.11013l-2.4399 0.81328c-0.18405 0.06134-0.44063 0.09132-0.59302 0.22026-0.16173 0.13685-0.17164 0.40022-0.22026 0.59302-0.1642 0.65113-0.42283 1.4282-0.24568 2.0925z"/></svg>
